X: 1789
T: Son Aşkımı Canlandıran
C: Lem´i Atlı
O: Turkey
F: http://compmusic.upf.edu/node/140
N: hicazkar--sarki--senginsemai--son_askimi--lemi_atli
N: makam= hicazkar
N: form= sarki
N: usul= senginsemai = 6/4
M: 6/4
L: 1/16
K: C _1/4B _7/8e _7/8A ^f
Q: 1/4=72
%%MIDI tuningsystem comma53
g4 _b4 =a3g agfg a4 z4  | f3=a g3f e3d agfe d4 z4  | 
w:  ARANAĞME  |   | 
d3e f3d e2f2 g2=a2 c'_bag f4  | d3e f3d e3d ^c2{f}ed d4 z4  | 
w:   |   | 
g4 b3=a g3f e3d c6_7/8a2  | a3g f3e d3c dcBA B6G2  | 
w:   |   | 
g2fe dcBA G4 B4 A3G F2{B}AG  | G8 A4 F2{B}AG G4 z4  | 
w:   |   | 
g4 _b4 =a3g agfg a4 z4  | f3=a g3f e3d agfe d4 z4  | 
w:  ARANAĞME  |   | 
d3e f3d e2f2 g2=a2 c'_bag f4  | d3e f3d e3d ^c2{f}ed d4 z4  | 
w:   |   | 
g4 b3=a g3f e3d c6_7/8a2  | a3g f3e d3c dcBA B6G2  | 
w:   |   | 
g2fe dcBA G4 B4 A3G F2{B}AG  | G8 A4 F2{B}AG G4 z4  | 
w:   |   | 
f4 g4 g4 g4 g2=a6  | _bb=ag f4 g4 g4 c'bag f2ed  | \
w:  Son  aş kı mı  can  |  lan *  *  *  *  dı ran  en   | 
d2{f}ed c4 g4 =a4 _bag4gf  | 
w:  tat *  *  *  *  lı  e mel  | 
g4 g4 g3f edef gedc BAG2  | f4 g4 g4 g4 g2=a6  | 
w:  sin   *  SAZ  |  Son  aş kı mı  can  | 
_bb=ag f4 g4 g4 c'bag f2ed  | d2{f}ed c4 g4 =a4 _bag4gf  | 
w:  lan *  *  *  *  dı ran  en   |  tat *  *  *  *  lı  e mel  | 
g4 g4 g3f edef g4 z4  | g4 b4 a4 g4 a6g2  | \
w:  sin   *  SAZ  |  Bir  han de  i  sev  | 
g6f2 f3e e2g2 fedc d4  | 
w:  dâ  *  gi *  bi  *  bin   | 
g2f2 e2d2 d2c2 d2e2 d3c B2{e}dc  | \
w:  zev *  *  *  ke  *  be *  del  | 
c6BA A4 A2{_B}AG G6z2  | 
w:  sin    | 
g4 b3a g3f e3d c8  | e6d2 d3c c2e2 dcBA B4  | \
w:  Bir  han *  de  *  i  *  sev  |  dâ  *  gi *  bi  *  bin   | 
g{a}gfe dcBA G4 B4 A3G F2{B}AG  | 
w:  zev *  *  *  *  *  *  *  *  ke  be del  | 
G8 d3c dcBc d4 z4  | c4 d4 d4 d4 d6c2  | \
w:  sin   SAZ  |  Et tik çe  te bes  | 
g2=f4_1/4e/d/e f3g feed d6z2  | 
w:  süm  *  *  *  *  a *  kı *  *  *  yor   | 
_b2=ag fedc d2e2 f2g2 gfe4ed  | d4 d4 =a3g agfg a4 z4  | 
w:  nûr_ *  *  *  *  *  *  u  *  le *  tâ  |  fet   *  SAZ  | 
g3=a a4 a4 a4 a6g2  | =a2b4a2 a3g g2{a}gf f6z2  | \
w:  Ha *  lin de  de  var   |  baş *  *  ka  *  e *  *  *  dâ   | 
g{a}gfe d4 g4 a2b2 a2g2 f2{b}ag  | 
w:  baş *  *  *  *  *  ka  za *  râ  | 
g4 g4 g3f edef g4 z4  | g4 b4 a4 g4 a6g2  | \
w:  fet   *  SAZ  |  Bir  han de  i  sev  | 
g6f2 f3e e2g2 fedc d4  | 
w:  dâ  *  gi *  bi  *  bin   | 
g2f2 e2d2 d2c2 d2e2 d3c B2{e}dc  | \
w:  zev *  *  *  ke  *  be *  del  | 
c6BA A4 A2{_B}AG G6z2  | 
w:  sin    | 
g4 b3a g3f e3d c8  | e6d2 d3c c2e2 dcBA B4  | \
w:  Bir  han *  de  *  i  *  sev  |  dâ  *  gi *  bi  *  bin   | 
g{a}gfe dcBA G4 B4 A3G F2{B}AG  | 
w:  zev *  *  *  *  *  *  *  *  ke  be del  | 
G4 fedc B3A BAAG G8  | |


